public/assets/logotype.svg

<svg xmlns="http://www.w3.org/2000/svg" viewBox="0 0 395.52 64.303">
  <svg data-palette-color="#152232" viewBox="2 -35.35 220.49 35.85">
    <path fill="#152232" d="M11.15 0H2.2Q2 0 2-.25l.1-34.35q0-.2.2-.2h9.6q2.85 0 5.1 1.37 2.25 1.38 3.55 3.63 1.3 2.25 1.3 4.9 0 2.15-.97 4-.98 1.85-2.33 3 1.45 1.45 2.25 3.35.8 1.9.8 4 0 2.9-1.4 5.3t-3.77 3.82Q14.05 0 11.15 0ZM8.1-28.85V-21h3.8q1.75 0 2.83-1.23 1.07-1.22 1.07-2.67 0-1.6-1.15-2.78-1.15-1.17-2.75-1.17H8.1Zm0 13.9L8.05-6.1h3.1q1.8 0 3.1-1.33 1.3-1.32 1.3-3.12t-1.3-3.1q-1.3-1.3-3.1-1.3H8.1ZM31.1 0h-5.65q-.25 0-.25-.25l.05-34.35q0-.2.2-.2h5.6q.2 0 .2.2L31.3-.25q0 .25-.2.25Zm15.25 0H40.7q-.2 0-.2-.25v-28.5H34q-.25 0-.25-.25l.05-5.6q0-.2.2-.2h19q.25 0 .25.2v5.6q0 .25-.2.25H46.5l.05 28.5q0 .25-.2.25Zm22.59 0h-5.65q-.2 0-.2-.25l.05-34.35q0-.2.25-.2h5.55q.25 0 .25.2L69.14-21h7.5v-13.6q0-.2.2-.2h5.55q.25 0 .25.2l.1 34.35q0 .25-.25.25h-5.6q-.25 0-.25-.25v-14.7h-7.5v14.7q0 .25-.2.25Zm16.2-.25 6.2-34.35q.05-.2.25-.2h7.25q.2 0 .25.2l5.95 34.35q.05.25-.2.25h-5.55q-.2 0-.25-.25l-.55-3.65h-6.8l-.55 3.65q-.05.25-.25.25h-5.55q-.2 0-.2-.25Zm9.8-23.05L92.69-9.25h4.8L95.44-23.3l-.3-1.85-.2 1.85ZM114.03 0h-5.64q-.2 0-.2-.25l.09-34.35q0-.2.2-.2h10.11q2.69 0 4.97 1.32 2.28 1.33 3.63 3.55 1.34 2.23 1.34 5.03 0 1.85-.55 3.32-.54 1.48-1.29 2.51-.75 1.02-1.35 1.52 2.69 3 2.69 7.05l.06 10.25q0 .25-.25.25h-5.65q-.21 0-.21-.15V-10.5q0-1.8-1.27-3.13-1.27-1.32-3.12-1.32h-3.31l-.05 14.7q0 .25-.2.25Zm.25-28.8v7.85h4.31q1.55 0 2.75-1.15 1.19-1.15 1.19-2.8 0-1.6-1.17-2.75t-2.77-1.15h-4.31ZM138.13 0h-5.65q-.2 0-.2-.25l.1-34.35q0-.2.2-.2h6.1q.2 0 .35.2l4.55 6.6 4.55-6.6q.15-.2.35-.2h6.15q.2 0 .2.2l.1 34.35q0 .25-.2.25h-5.65q-.2 0-.2-.25l-.05-25.5-5.25 7.6-5.2-7.6-.05 25.5q0 .25-.2.25Zm30.25.5q-2.7 0-4.93-1.38-2.22-1.37-3.57-3.65-1.35-2.27-1.35-5.02l.05-15.85q0-2.75 1.33-5 1.32-2.25 3.57-3.6t4.9-1.35q2.7 0 4.9 1.35t3.53 3.6q1.32 2.25 1.32 5l.05 15.85q0 2.75-1.33 5.02-1.32 2.28-3.54 3.65Q171.08.5 168.38.5Zm0-6.05q1.5 0 2.62-1.23 1.13-1.22 1.13-2.77l-.05-15.85q0-1.65-1.05-2.8t-2.65-1.15q-1.55 0-2.65 1.12-1.1 1.13-1.1 2.83v15.85q0 1.65 1.1 2.82 1.1 1.18 2.65 1.18ZM187.43 0h-5q-.4 0-.4-.35l-.05-34.05q0-.4.4-.4h4.5l8.45 19.7-.25-19.3q0-.4.45-.4h4.95q.3 0 .3.4l.05 34.1q0 .3-.25.3h-4.4l-8.65-18.4.35 18q0 .4-.45.4Zm28.15 0h-5.75q-.15 0-.15-.2l.05-14.2-6.7-20.2q-.05-.2.15-.2h5.55q.25 0 .3.2l3.7 13.45 3.75-13.45q.05-.2.25-.2h5.6q.2 0 .15.2l-6.75 20 .05 14.4q0 .2-.2.2Z" class="wordmark-text-0" data-fill-palette-color="primary"/>
  </svg>
</svg>

<svg xmlns:xlink="http://www.w3.org/1999/xlink" xmlns="http://www.w3.org/2000/svg" viewBox="0 0 395.52 64.30271643009388" height="64.30271643009388" width="395.52"><g transform="matrix(1,0,0,1,0,0)"><svg width="395.52" viewBox="2 -35.349998474121094 220.489990234375 35.849998474121094" height="64.30271643009388" data-palette-color="#152232"><path d="M11.15 0L2.2 0Q2 0 2-0.25L2-0.25 2.1-34.6Q2.1-34.8 2.3-34.8L2.3-34.8 11.9-34.8Q14.75-34.8 17-33.43 19.25-32.05 20.55-29.8 21.85-27.55 21.85-24.9L21.85-24.9Q21.85-22.75 20.88-20.9 19.9-19.05 18.55-17.9L18.55-17.9Q20-16.45 20.8-14.55 21.6-12.65 21.6-10.55L21.6-10.55Q21.6-7.65 20.2-5.25 18.8-2.85 16.43-1.43 14.05 0 11.15 0L11.15 0ZM8.1-28.85L8.1-21 11.9-21Q13.65-21 14.73-22.23 15.8-23.45 15.8-24.9L15.8-24.9Q15.8-26.5 14.65-27.68 13.5-28.85 11.9-28.85L11.9-28.85 8.1-28.85ZM8.1-14.95L8.05-6.1 11.15-6.1Q12.95-6.1 14.25-7.43 15.55-8.75 15.55-10.55L15.55-10.55Q15.55-12.35 14.25-13.65 12.95-14.95 11.15-14.95L11.15-14.95 8.1-14.95ZM31.1 0L25.45 0Q25.2 0 25.2-0.25L25.2-0.25 25.25-34.6Q25.25-34.8 25.45-34.8L25.45-34.8 31.05-34.8Q31.25-34.8 31.25-34.6L31.25-34.6 31.3-0.25Q31.3 0 31.1 0L31.1 0ZM46.35 0L40.7 0Q40.5 0 40.5-0.25L40.5-0.25 40.5-28.75 34-28.75Q33.75-28.75 33.75-29L33.75-29 33.8-34.6Q33.8-34.8 34-34.8L34-34.8 53-34.8Q53.25-34.8 53.25-34.6L53.25-34.6 53.25-29Q53.25-28.75 53.05-28.75L53.05-28.75 46.5-28.75 46.55-0.25Q46.55 0 46.35 0L46.35 0ZM68.94 0L63.29 0Q63.09 0 63.09-0.25L63.09-0.25 63.14-34.6Q63.14-34.8 63.39-34.8L63.39-34.8 68.94-34.8Q69.19-34.8 69.19-34.6L69.19-34.6 69.14-21 76.64-21 76.64-34.6Q76.64-34.8 76.84-34.8L76.84-34.8 82.39-34.8Q82.64-34.8 82.64-34.6L82.64-34.6 82.74-0.25Q82.74 0 82.49 0L82.49 0 76.89 0Q76.64 0 76.64-0.25L76.64-0.25 76.64-14.95 69.14-14.95 69.14-0.25Q69.14 0 68.94 0L68.94 0ZM85.14-0.25L85.14-0.25 91.34-34.6Q91.39-34.8 91.59-34.8L91.59-34.8 98.84-34.8Q99.04-34.8 99.09-34.6L99.09-34.6 105.04-0.25Q105.09 0 104.84 0L104.84 0 99.29 0Q99.09 0 99.04-0.25L99.04-0.25 98.49-3.9 91.69-3.9 91.14-0.25Q91.09 0 90.89 0L90.89 0 85.34 0Q85.14 0 85.14-0.25ZM94.94-23.3L92.69-9.25 97.49-9.25 95.44-23.3 95.14-25.15 94.94-23.3ZM114.03 0L108.39 0Q108.19 0 108.19-0.25L108.19-0.25 108.28-34.6Q108.28-34.8 108.48-34.8L108.48-34.8 118.59-34.8Q121.28-34.8 123.56-33.48 125.84-32.15 127.19-29.93 128.53-27.7 128.53-24.9L128.53-24.9Q128.53-23.05 127.98-21.58 127.44-20.1 126.69-19.07 125.94-18.05 125.34-17.55L125.34-17.55Q128.03-14.55 128.03-10.5L128.03-10.5 128.09-0.25Q128.09 0 127.84 0L127.84 0 122.19 0Q121.98 0 121.98-0.15L121.98-0.15 121.98-10.5Q121.98-12.3 120.71-13.63 119.44-14.95 117.59-14.95L117.59-14.95 114.28-14.95 114.23-0.25Q114.23 0 114.03 0L114.03 0ZM114.28-28.8L114.28-20.95 118.59-20.95Q120.14-20.95 121.34-22.1 122.53-23.25 122.53-24.9L122.53-24.9Q122.53-26.5 121.36-27.65 120.19-28.8 118.59-28.8L118.59-28.8 114.28-28.8ZM138.13 0L132.48 0Q132.28 0 132.28-0.25L132.28-0.25 132.38-34.6Q132.38-34.8 132.58-34.8L132.58-34.8 138.68-34.8Q138.88-34.8 139.03-34.6L139.03-34.6 143.58-28 148.13-34.6Q148.28-34.8 148.48-34.8L148.48-34.8 154.63-34.8Q154.83-34.8 154.83-34.6L154.83-34.6 154.93-0.25Q154.93 0 154.73 0L154.73 0 149.08 0Q148.88 0 148.88-0.25L148.88-0.25 148.83-25.75 143.58-18.15 138.38-25.75 138.33-0.25Q138.33 0 138.13 0L138.13 0ZM168.38 0.5L168.38 0.5Q165.68 0.5 163.45-0.88 161.23-2.25 159.88-4.53 158.53-6.8 158.53-9.55L158.53-9.55 158.58-25.4Q158.58-28.15 159.91-30.4 161.23-32.65 163.48-34 165.73-35.35 168.38-35.35L168.38-35.35Q171.08-35.35 173.28-34 175.48-32.65 176.81-30.4 178.13-28.15 178.13-25.4L178.13-25.4 178.18-9.55Q178.18-6.8 176.85-4.53 175.53-2.25 173.31-0.88 171.08 0.5 168.38 0.5ZM168.38-5.55L168.38-5.55Q169.88-5.55 171-6.78 172.13-8 172.13-9.55L172.13-9.55 172.08-25.4Q172.08-27.05 171.03-28.2 169.98-29.35 168.38-29.35L168.38-29.35Q166.83-29.35 165.73-28.23 164.63-27.1 164.63-25.4L164.63-25.4 164.63-9.55Q164.63-7.9 165.73-6.73 166.83-5.55 168.38-5.55ZM187.43 0L182.43 0Q182.03 0 182.03-0.35L182.03-0.35 181.98-34.4Q181.98-34.8 182.38-34.8L182.38-34.8 186.88-34.8 195.33-15.1 195.08-34.4Q195.08-34.8 195.53-34.8L195.53-34.8 200.48-34.8Q200.78-34.8 200.78-34.4L200.78-34.4 200.83-0.3Q200.83 0 200.58 0L200.58 0 196.18 0 187.53-18.4 187.88-0.4Q187.88 0 187.43 0L187.43 0ZM215.58 0L209.83 0Q209.68 0 209.68-0.2L209.68-0.2 209.73-14.4 203.03-34.6Q202.98-34.8 203.18-34.8L203.18-34.8 208.73-34.8Q208.98-34.8 209.03-34.6L209.03-34.6 212.73-21.15 216.48-34.6Q216.53-34.8 216.73-34.8L216.73-34.8 222.33-34.8Q222.53-34.8 222.48-34.6L222.48-34.6 215.73-14.6 215.78-0.2Q215.78 0 215.58 0L215.58 0Z" opacity="1" transform="matrix(1,0,0,1,0,0)" fill="#152232" class="wordmark-text-0" data-fill-palette-color="primary" id="text-0"></path></svg></g></svg>
